flaticon/gastronomy/ice-cream-14.svg

<svg xmlns="http://www.w3.org/2000/svg" width="32" height="32" viewBox="0 0 24 24">
    <path d="M 17.769531 6.226562 C 18.484375 5.648438 18.902344 4.789062 18.902344 3.859375 C 18.902344 2.179688 17.535156 0.8125 15.859375 0.8125 C 15.566406 0.8125 15.28125 0.855469 15 0.9375 C 14.21875 0.351562 13.253906 0 12.203125 0 C 9.628906 0 7.535156 2.09375 7.535156 4.667969 C 7.535156 4.800781 7.542969 4.9375 7.554688 5.078125 C 6.125 5.574219 5.097656 6.929688 5.097656 8.527344 C 5.097656 10.367188 6.460938 11.886719 8.230469 12.140625 L 8.207031 12.164062 L 8.300781 12.257812 L 11.882812 23.714844 C 11.9375 23.882812 12.09375 24 12.269531 24 C 12.269531 24 12.269531 24 12.273438 24 C 12.445312 24 12.601562 23.886719 12.65625 23.722656 L 17.175781 10.128906 C 17.742188 9.484375 18.089844 8.640625 18.089844 7.714844 C 18.089844 7.191406 17.976562 6.6875 17.769531 6.226562 Z M 18.089844 3.859375 C 18.089844 4.5 17.820312 5.097656 17.347656 5.519531 C 17.292969 5.441406 17.230469 5.371094 17.167969 5.296875 C 17.136719 5.261719 17.105469 5.226562 17.070312 5.191406 C 17.027344 5.144531 16.980469 5.097656 16.929688 5.054688 C 16.90625 5.03125 16.886719 5.007812 16.863281 4.984375 C 16.871094 4.878906 16.871094 4.773438 16.871094 4.667969 C 16.871094 4.519531 16.863281 4.367188 16.851562 4.21875 C 16.84375 4.171875 16.835938 4.121094 16.828125 4.074219 C 16.816406 3.972656 16.804688 3.875 16.785156 3.777344 C 16.773438 3.722656 16.761719 3.671875 16.746094 3.617188 C 16.726562 3.523438 16.703125 3.433594 16.679688 3.34375 C 16.664062 3.292969 16.644531 3.242188 16.628906 3.191406 C 16.597656 3.101562 16.566406 3.011719 16.53125 2.921875 C 16.511719 2.878906 16.492188 2.832031 16.472656 2.789062 C 16.433594 2.695312 16.386719 2.601562 16.339844 2.511719 C 16.320312 2.476562 16.300781 2.4375 16.28125 2.40625 C 16.226562 2.304688 16.167969 2.210938 16.105469 2.113281 C 16.089844 2.089844 16.074219 2.0625 16.054688 2.039062 C 15.984375 1.933594 15.910156 1.835938 15.832031 1.738281 C 15.820312 1.722656 15.808594 1.707031 15.792969 1.6875 C 15.777344 1.667969 15.761719 1.648438 15.746094 1.625 C 17.015625 1.5625 18.089844 2.589844 18.089844 3.859375 Z M 8.34375 4.667969 C 8.34375 2.542969 10.078125 0.8125 12.203125 0.8125 C 13.199219 0.8125 14.105469 1.195312 14.789062 1.816406 C 14.84375 1.863281 14.898438 1.910156 14.945312 1.960938 C 14.996094 2.011719 15.039062 2.066406 15.085938 2.117188 C 15.128906 2.164062 15.167969 2.207031 15.207031 2.257812 C 15.253906 2.3125 15.292969 2.371094 15.335938 2.429688 C 15.371094 2.476562 15.40625 2.527344 15.441406 2.578125 C 15.476562 2.636719 15.515625 2.695312 15.550781 2.757812 C 15.582031 2.8125 15.613281 2.871094 15.640625 2.925781 C 15.671875 2.984375 15.699219 3.042969 15.726562 3.105469 C 15.753906 3.167969 15.78125 3.234375 15.804688 3.300781 C 15.828125 3.359375 15.851562 3.414062 15.867188 3.472656 C 15.894531 3.546875 15.914062 3.625 15.933594 3.703125 C 15.945312 3.753906 15.960938 3.804688 15.972656 3.859375 C 15.992188 3.949219 16.003906 4.039062 16.019531 4.128906 C 16.023438 4.171875 16.035156 4.214844 16.039062 4.257812 C 16.050781 4.394531 16.058594 4.53125 16.058594 4.667969 C 16.058594 4.808594 16.050781 4.949219 16.035156 5.09375 C 16.035156 5.113281 16.027344 5.132812 16.027344 5.152344 C 16.023438 5.171875 16.019531 5.191406 16.015625 5.210938 C 16.015625 5.21875 16.015625 5.230469 16.011719 5.238281 C 16.003906 5.289062 15.996094 5.335938 15.988281 5.386719 C 15.980469 5.421875 15.976562 5.460938 15.96875 5.5 C 15.964844 5.507812 15.960938 5.519531 15.960938 5.527344 C 15.953125 5.550781 15.949219 5.574219 15.941406 5.597656 C 15.941406 5.601562 15.941406 5.601562 15.941406 5.601562 C 15.925781 5.65625 15.910156 5.710938 15.894531 5.765625 C 15.882812 5.8125 15.871094 5.855469 15.855469 5.898438 C 15.855469 5.902344 15.855469 5.902344 15.855469 5.902344 C 15.847656 5.921875 15.84375 5.9375 15.835938 5.953125 C 15.835938 5.960938 15.832031 5.964844 15.832031 5.96875 C 15.832031 5.96875 15.828125 5.96875 15.828125 5.972656 C 15.789062 6.082031 15.746094 6.183594 15.699219 6.289062 C 15.699219 6.289062 15.699219 6.289062 15.699219 6.292969 C 15.417969 6.894531 14.988281 7.414062 14.457031 7.800781 C 14.457031 7.800781 14.453125 7.800781 14.453125 7.800781 C 14.359375 7.867188 14.265625 7.929688 14.164062 7.988281 C 14.148438 8 14.128906 8.007812 14.113281 8.019531 C 14.03125 8.066406 13.945312 8.113281 13.855469 8.152344 C 13.828125 8.167969 13.796875 8.179688 13.765625 8.191406 C 13.691406 8.226562 13.613281 8.261719 13.535156 8.289062 C 13.492188 8.304688 13.453125 8.316406 13.410156 8.332031 C 13.339844 8.355469 13.269531 8.375 13.199219 8.394531 C 13.148438 8.40625 13.097656 8.417969 13.046875 8.429688 C 12.980469 8.445312 12.914062 8.460938 12.847656 8.472656 C 12.792969 8.480469 12.738281 8.488281 12.679688 8.496094 C 12.617188 8.503906 12.550781 8.507812 12.484375 8.515625 C 12.457031 8.515625 12.433594 8.515625 12.40625 8.519531 C 12.40625 8.453125 12.398438 8.390625 12.394531 8.324219 C 12.390625 8.265625 12.390625 8.207031 12.386719 8.152344 C 12.378906 8.085938 12.367188 8.019531 12.355469 7.953125 C 12.347656 7.898438 12.34375 7.84375 12.332031 7.789062 C 12.320312 7.730469 12.300781 7.671875 12.285156 7.613281 C 12.269531 7.554688 12.257812 7.496094 12.238281 7.441406 C 12.226562 7.390625 12.203125 7.34375 12.1875 7.292969 C 12.164062 7.230469 12.144531 7.164062 12.117188 7.105469 C 12.097656 7.0625 12.074219 7.019531 12.054688 6.976562 C 12.023438 6.914062 11.996094 6.847656 11.960938 6.785156 C 11.941406 6.75 11.921875 6.71875 11.898438 6.683594 C 11.859375 6.617188 11.824219 6.546875 11.777344 6.484375 C 11.761719 6.457031 11.742188 6.433594 11.722656 6.410156 C 11.671875 6.339844 11.621094 6.269531 11.566406 6.203125 C 11.554688 6.1875 11.535156 6.167969 11.523438 6.152344 C 11.460938 6.082031 11.398438 6.011719 11.332031 5.945312 C 11.316406 5.929688 11.296875 5.914062 11.28125 5.898438 C 11.214844 5.832031 11.144531 5.769531 11.074219 5.707031 C 11.066406 5.703125 11.058594 5.699219 11.054688 5.695312 C 10.96875 5.625 10.882812 5.558594 10.789062 5.496094 C 10.785156 5.492188 10.777344 5.492188 10.773438 5.488281 C 10.679688 5.425781 10.585938 5.367188 10.488281 5.316406 C 10.488281 5.316406 10.488281 5.3125 10.488281 5.3125 C 10.386719 5.257812 10.277344 5.207031 10.171875 5.160156 C 10.152344 5.152344 10.132812 5.148438 10.113281 5.140625 C 10.023438 5.101562 9.929688 5.066406 9.835938 5.039062 C 9.796875 5.027344 9.757812 5.019531 9.722656 5.007812 C 9.644531 4.988281 9.566406 4.964844 9.484375 4.949219 C 9.398438 4.929688 9.304688 4.917969 9.214844 4.90625 C 9.183594 4.902344 9.15625 4.894531 9.125 4.894531 C 9 4.878906 8.878906 4.871094 8.75 4.871094 C 8.617188 4.871094 8.484375 4.882812 8.355469 4.894531 C 8.347656 4.820312 8.34375 4.742188 8.34375 4.667969 Z M 5.910156 8.527344 C 5.910156 7.183594 6.84375 6.058594 8.097656 5.765625 C 8.320312 5.710938 8.539062 5.6875 8.753906 5.683594 C 9.820312 5.6875 10.75 6.277344 11.234375 7.148438 C 11.242188 7.164062 11.25 7.175781 11.257812 7.191406 C 11.292969 7.253906 11.324219 7.316406 11.351562 7.382812 C 11.363281 7.414062 11.378906 7.441406 11.390625 7.472656 C 11.410156 7.527344 11.433594 7.585938 11.449219 7.640625 C 11.464844 7.683594 11.476562 7.730469 11.492188 7.777344 C 11.503906 7.824219 11.515625 7.871094 11.527344 7.921875 C 11.539062 7.980469 11.550781 8.042969 11.558594 8.105469 C 11.566406 8.140625 11.574219 8.179688 11.578125 8.21875 C 11.585938 8.320312 11.59375 8.421875 11.59375 8.527344 C 11.59375 8.644531 11.585938 8.757812 11.570312 8.871094 C 11.570312 8.871094 11.570312 8.871094 11.570312 8.875 C 11.558594 8.972656 11.539062 9.074219 11.515625 9.175781 C 11.515625 9.179688 11.515625 9.183594 11.515625 9.1875 C 11.492188 9.285156 11.460938 9.382812 11.429688 9.476562 C 11.417969 9.5 11.410156 9.527344 11.402344 9.550781 C 11.394531 9.566406 11.382812 9.578125 11.375 9.59375 C 11.105469 10.257812 10.609375 10.773438 10 11.078125 C 9.984375 11.085938 9.964844 11.09375 9.945312 11.101562 C 9.71875 11.210938 9.476562 11.285156 9.222656 11.328125 C 9.195312 11.332031 9.164062 11.335938 9.132812 11.339844 C 9.007812 11.359375 8.878906 11.371094 8.75 11.371094 C 8.710938 11.371094 8.675781 11.367188 8.636719 11.363281 L 8.597656 11.363281 C 8.597656 11.363281 8.59375 11.363281 8.59375 11.363281 C 7.101562 11.28125 5.910156 10.042969 5.910156 8.527344 Z M 12.285156 22.269531 L 11.367188 19.339844 L 11.652344 19.058594 L 11.109375 18.511719 L 10.546875 16.71875 L 11.078125 16.1875 L 10.503906 15.613281 L 10.273438 15.84375 L 9.539062 13.5 L 9.929688 13.890625 L 10.503906 13.316406 L 9.929688 12.742188 L 9.449219 13.21875 L 9.175781 12.34375 L 9.355469 12.167969 L 9.320312 12.132812 C 9.390625 12.125 9.457031 12.113281 9.523438 12.097656 C 9.5625 12.089844 9.601562 12.078125 9.640625 12.070312 C 9.734375 12.046875 9.824219 12.019531 9.914062 11.988281 C 9.957031 11.976562 10 11.960938 10.042969 11.941406 C 10.097656 11.921875 10.15625 11.898438 10.210938 11.875 L 10.503906 12.164062 L 11.078125 11.589844 L 10.9375 11.449219 C 11.332031 11.152344 11.664062 10.78125 11.914062 10.351562 C 11.925781 10.359375 11.9375 10.371094 11.949219 10.378906 C 12.007812 10.433594 12.066406 10.488281 12.128906 10.539062 L 11.652344 11.019531 L 12.226562 11.59375 L 12.800781 11.019531 L 12.71875 10.9375 C 12.738281 10.945312 12.753906 10.957031 12.769531 10.964844 C 12.785156 10.972656 12.800781 10.980469 12.816406 10.984375 C 12.921875 11.039062 13.027344 11.085938 13.140625 11.128906 C 13.167969 11.140625 13.199219 11.148438 13.230469 11.160156 C 13.324219 11.195312 13.425781 11.226562 13.523438 11.25 C 13.558594 11.261719 13.59375 11.269531 13.628906 11.277344 C 13.730469 11.300781 13.828125 11.316406 13.929688 11.332031 C 13.964844 11.335938 14 11.34375 14.035156 11.347656 C 14.167969 11.363281 14.300781 11.371094 14.4375 11.371094 C 14.546875 11.371094 14.652344 11.363281 14.761719 11.355469 L 14.523438 11.59375 L 15.097656 12.167969 L 15.671875 11.59375 L 15.332031 11.253906 C 15.433594 11.230469 15.53125 11.203125 15.625 11.167969 C 15.644531 11.160156 15.664062 11.15625 15.679688 11.148438 C 15.789062 11.109375 15.894531 11.0625 16 11.015625 C 16.007812 11.011719 16.019531 11.007812 16.027344 11.003906 Z M 16.5 9.664062 C 16.445312 9.71875 16.390625 9.773438 16.332031 9.828125 C 16.316406 9.839844 16.300781 9.855469 16.285156 9.867188 C 16.234375 9.914062 16.179688 9.953125 16.128906 9.996094 C 16.101562 10.015625 16.078125 10.035156 16.050781 10.050781 C 16.007812 10.082031 15.964844 10.109375 15.921875 10.132812 C 15.882812 10.160156 15.84375 10.183594 15.804688 10.207031 C 15.773438 10.222656 15.742188 10.234375 15.714844 10.25 C 15.660156 10.277344 15.601562 10.308594 15.546875 10.332031 C 15.53125 10.335938 15.515625 10.34375 15.5 10.347656 C 15.257812 10.449219 15 10.515625 14.726562 10.542969 C 14.632812 10.550781 14.535156 10.558594 14.4375 10.558594 C 14.332031 10.558594 14.226562 10.550781 14.121094 10.539062 C 14.046875 10.53125 13.96875 10.515625 13.894531 10.5 C 13.867188 10.496094 13.839844 10.492188 13.816406 10.488281 C 13.746094 10.472656 13.675781 10.449219 13.605469 10.429688 C 13.574219 10.417969 13.546875 10.414062 13.515625 10.402344 C 13.464844 10.386719 13.417969 10.363281 13.367188 10.34375 C 13.320312 10.320312 13.269531 10.304688 13.222656 10.28125 C 13.199219 10.269531 13.175781 10.253906 13.148438 10.242188 C 13.078125 10.207031 13.007812 10.167969 12.941406 10.125 C 12.9375 10.125 12.9375 10.125 12.9375 10.125 C 12.6875 9.964844 12.460938 9.765625 12.261719 9.53125 C 12.265625 9.523438 12.265625 9.515625 12.269531 9.507812 C 12.285156 9.453125 12.300781 9.394531 12.3125 9.339844 C 12.425781 9.335938 12.535156 9.328125 12.644531 9.316406 C 12.65625 9.316406 12.671875 9.316406 12.683594 9.316406 C 12.832031 9.300781 12.972656 9.277344 13.113281 9.25 C 13.148438 9.242188 13.183594 9.234375 13.21875 9.226562 C 13.328125 9.199219 13.433594 9.175781 13.535156 9.144531 C 13.574219 9.132812 13.613281 9.121094 13.652344 9.105469 C 13.757812 9.074219 13.863281 9.035156 13.964844 8.992188 C 13.992188 8.980469 14.019531 8.972656 14.046875 8.960938 C 14.449219 8.785156 14.824219 8.554688 15.160156 8.28125 C 15.167969 8.273438 15.175781 8.265625 15.183594 8.261719 C 15.292969 8.171875 15.394531 8.078125 15.492188 7.980469 C 15.5 7.972656 15.503906 7.96875 15.507812 7.964844 C 15.816406 7.65625 16.082031 7.308594 16.292969 6.921875 C 16.308594 6.894531 16.320312 6.867188 16.335938 6.839844 C 16.382812 6.746094 16.429688 6.652344 16.472656 6.554688 C 16.492188 6.511719 16.511719 6.464844 16.527344 6.421875 C 16.5625 6.339844 16.589844 6.257812 16.617188 6.175781 C 16.636719 6.121094 16.660156 6.0625 16.675781 6.007812 C 16.675781 6.003906 16.679688 6 16.679688 5.996094 C 16.753906 6.097656 16.832031 6.191406 16.894531 6.304688 C 16.894531 6.304688 16.898438 6.304688 16.898438 6.304688 C 17.144531 6.730469 17.277344 7.210938 17.277344 7.714844 C 17.277344 8.46875 16.980469 9.152344 16.5 9.664062 Z M 16.5 9.664062"/>
    <path d="M 13.375 11.589844 L 13.949219 12.164062 L 13.375 12.738281 L 12.800781 12.164062 Z M 14.523438 13.886719 L 13.949219 13.3125 L 14.523438 12.738281 L 15.097656 13.3125 Z M 11.652344 12.164062 L 12.226562 12.738281 L 11.652344 13.3125 L 11.078125 12.738281 Z M 13.375 13.890625 L 12.800781 14.464844 L 12.226562 13.890625 L 12.800781 13.316406 Z M 13.949219 15.609375 L 13.375 15.035156 L 13.949219 14.460938 L 14.523438 15.035156 Z M 11.078125 13.886719 L 11.652344 14.460938 L 11.078125 15.035156 L 10.503906 14.460938 Z M 12.226562 16.183594 L 11.652344 15.609375 L 12.226562 15.035156 L 12.800781 15.609375 Z M 13.375 17.332031 L 12.800781 16.757812 L 13.375 16.1875 L 13.949219 16.757812 Z M 11.652344 16.757812 L 12.226562 17.332031 L 11.652344 17.90625 L 11.078125 17.332031 Z M 12.800781 19.058594 L 12.226562 18.484375 L 12.800781 17.910156 L 13.375 18.484375 Z M 12.226562 20.78125 L 11.652344 20.207031 L 12.226562 19.632812 L 12.800781 20.207031 Z M 12.226562 20.78125"/>
</svg>

<svg xmlns="http://www.w3.org/2000/svg" width="32" height="32" viewBox="0 0 24 24">
    <path d="M17.77 6.227a3.031 3.031 0 0 0 1.132-2.368A3.05 3.05 0 0 0 15.86.813 3.05 3.05 0 0 0 15 .938 4.642 4.642 0 0 0 12.203 0a4.673 4.673 0 0 0-4.648 5.078 3.652 3.652 0 0 0-2.457 3.45c0 1.84 1.363 3.359 3.132 3.613l-.023.023.094.094 3.582 11.457a.41.41 0 0 0 .387.285h.003a.407.407 0 0 0 .383-.277l4.52-13.594a3.646 3.646 0 0 0 .914-2.414c0-.524-.113-1.027-.32-1.488zm.32-2.368c0 .641-.27 1.239-.742 1.66-.055-.078-.118-.148-.18-.222-.031-.035-.063-.07-.098-.106a1.556 1.556 0 0 0-.14-.136c-.024-.024-.043-.047-.067-.07a5.758 5.758 0 0 0-.012-.766l-.023-.145a2.387 2.387 0 0 0-.082-.457 5.596 5.596 0 0 0-.066-.273l-.051-.153a7.46 7.46 0 0 0-.098-.27c-.02-.042-.039-.089-.058-.132a3.61 3.61 0 0 0-.133-.277c-.02-.035-.04-.075-.059-.106a4.47 4.47 0 0 0-.176-.293c-.015-.023-.03-.05-.05-.074a4.274 4.274 0 0 0-.223-.3l-.039-.052c-.016-.019-.031-.039-.047-.062a2.244 2.244 0 0 1 2.344 2.234zm-9.746.809a3.864 3.864 0 0 1 3.86-3.856c.995 0 1.901.383 2.585 1.004.055.047.11.094.156.145.051.05.094.105.14.156.044.047.083.09.122.14.047.055.086.114.129.173.035.047.07.097.105.148.036.059.075.117.11.18a3.513 3.513 0 0 1 .176.347c.027.063.054.13.078.196.023.058.047.113.062.172.028.074.047.152.067.23.011.05.027.102.039.156.02.09.03.18.047.27.003.043.015.086.02.129a3.942 3.942 0 0 1-.004.836c0 .02-.009.039-.009.058l-.011.059c0 .008 0 .02-.004.027l-.024.149c-.008.035-.011.074-.02.113a.072.072 0 0 0-.007.027c-.008.024-.012.047-.02.07v.005l-.046.164c-.012.046-.024.09-.04.132v.004c-.007.02-.011.035-.02.051 0 .008-.003.012-.003.016 0 0-.004 0-.004.004-.039.109-.082.21-.129.316v.004a3.922 3.922 0 0 1-1.242 1.508h-.004a3.663 3.663 0 0 1-.289.187c-.016.012-.035.02-.05.032a2.666 2.666 0 0 1-.348.171c-.075.036-.153.07-.23.098-.044.016-.083.027-.126.043-.07.023-.14.043-.21.063l-.153.035c-.067.015-.133.03-.2.043l-.167.023c-.063.008-.13.012-.196.02-.027 0-.05 0-.078.004 0-.067-.008-.13-.011-.196-.004-.058-.004-.117-.008-.172a3.513 3.513 0 0 0-.032-.199c-.007-.055-.011-.11-.023-.164-.012-.059-.031-.117-.047-.176-.015-.058-.027-.117-.047-.172-.011-.05-.035-.097-.05-.148-.024-.063-.043-.129-.07-.188-.02-.043-.044-.085-.063-.128-.032-.063-.059-.13-.094-.192a1.426 1.426 0 0 0-.063-.101c-.039-.067-.074-.137-.12-.2a.52.52 0 0 0-.055-.074c-.051-.07-.102-.14-.157-.207-.011-.016-.03-.035-.043-.05a4.801 4.801 0 0 0-.191-.208c-.016-.015-.035-.03-.05-.047-.067-.066-.137-.128-.208-.191a.085.085 0 0 1-.02-.012 3.362 3.362 0 0 0-.265-.199c-.004-.004-.012-.004-.016-.008a3.068 3.068 0 0 0-.285-.172v-.003a4.708 4.708 0 0 0-.316-.153c-.02-.008-.04-.012-.059-.02a2.357 2.357 0 0 0-.277-.1c-.04-.013-.078-.02-.113-.032-.078-.02-.157-.043-.239-.059-.086-.02-.18-.031-.27-.043-.03-.004-.058-.011-.089-.011a2.974 2.974 0 0 0-.375-.024c-.133 0-.266.012-.395.024a2.2 2.2 0 0 1-.011-.227zM5.91 8.528c0-1.344.934-2.47 2.188-2.762.222-.055.441-.079.656-.082a2.848 2.848 0 0 1 2.48 1.464l.024.043c.035.063.066.125.094.192.011.031.027.058.039.09.02.054.043.113.058.168.016.043.028.09.043.136a2.567 2.567 0 0 1 .066.328.976.976 0 0 1 .02.114c.008.101.016.203.016.308 0 .118-.008.23-.024.344v.004c-.011.098-.03.2-.054.3v.012a3.526 3.526 0 0 1-.086.29c-.012.023-.02.05-.028.074-.007.015-.02.027-.027.043A2.857 2.857 0 0 1 10 11.078a.765.765 0 0 1-.055.024 2.686 2.686 0 0 1-.812.238 2.49 2.49 0 0 1-.383.031c-.04 0-.074-.004-.113-.008h-.04-.003A2.844 2.844 0 0 1 5.91 8.527zm6.375 13.742l-.918-2.93.285-.281-.543-.547-.562-1.793.531-.532-.574-.574-.23.23-.735-2.343.39.39.575-.574-.574-.574-.48.477-.274-.875.18-.176-.036-.035c.07-.008.137-.02.203-.035.04-.008.079-.02.118-.028.093-.023.183-.05.273-.082a.855.855 0 0 0 .129-.047c.055-.02.113-.043.168-.066l.293.29.574-.575-.14-.14c.394-.298.726-.669.976-1.098.012.007.024.02.035.027.059.055.117.11.18.16l-.477.48.575.575.574-.574-.082-.082c.02.007.035.019.05.027.016.008.032.015.047.02.106.054.211.1.325.144.027.012.058.02.09.031.093.035.195.067.292.09a4.055 4.055 0 0 0 .406.082c.036.004.071.012.106.016.133.015.266.023.402.023.11 0 .215-.008.325-.016l-.239.239.575.574.574-.574-.34-.34c.102-.024.2-.05.293-.086.02-.008.04-.012.055-.02.11-.039.215-.085.32-.132l.027-.012zM16.5 9.664c-.055.055-.11.11-.168.164-.016.012-.031.027-.047.04-.05.046-.105.085-.156.128-.027.02-.05.04-.078.055a1.181 1.181 0 0 1-.13.082c-.038.027-.077.05-.116.074-.032.016-.063.027-.09.043-.055.027-.113.059-.168.082-.016.004-.031.012-.047.016-.242.101-.5.168-.773.195a3.488 3.488 0 0 1-.29.016c-.105 0-.21-.008-.316-.02a2.29 2.29 0 0 1-.226-.039l-.079-.012c-.07-.015-.14-.039-.21-.058-.032-.012-.06-.016-.09-.028-.051-.015-.098-.039-.149-.058-.047-.024-.097-.04-.144-.063-.024-.011-.047-.027-.075-.039a2.164 2.164 0 0 1-.207-.117h-.004c-.25-.16-.476-.36-.675-.594.004-.008.004-.015.008-.023.015-.055.03-.113.043-.168.113-.004.222-.012.332-.024h.039c.148-.015.289-.039.43-.066l.105-.023c.11-.028.215-.051.316-.082.04-.012.078-.024.117-.04.106-.03.211-.07.313-.113.027-.012.055-.02.082-.031a4.83 4.83 0 0 0 1.113-.68 4.254 4.254 0 0 0 .332-.3l.016-.016c.308-.309.574-.656.785-1.043.016-.027.027-.055.043-.082.047-.094.094-.188.137-.285.02-.043.039-.09.054-.133.035-.082.063-.164.09-.246.02-.055.043-.114.059-.168 0-.004.004-.008.004-.012.074.102.152.195.215.309h.003c.247.425.38.906.38 1.41 0 .754-.298 1.437-.778 1.95zm0 0"/>
    <path d="M13.375 11.59l.574.574-.574.574-.574-.574zm1.148 2.297l-.574-.575.574-.574.575.575zm-2.87-1.723l.574.574-.575.575-.574-.575zm1.722 1.727l-.574.574-.574-.574.574-.575zm.574 1.718l-.574-.574.574-.574.574.574zm-2.87-1.722l.573.574-.574.574-.574-.574zm1.148 2.297l-.575-.575.575-.574.574.574zm1.148 1.148l-.574-.574.574-.57.574.57zm-1.723-.574l.575.574-.575.574-.574-.574zm1.149 2.3l-.574-.574.574-.574.574.574zm-.574 1.723l-.575-.574.575-.574.574.574zm0 0"/>
</svg>
